X:157
T:Porter's Dream. (p)1657.PLFD.158
M:6/4
L:1/4
Q:3/4=80
S:Playford, Dancing Master,Supplement to 3rd Ed.,1657
O:England
H:1657.
Z:Chris Partington.
K:D
A|A>BAA>BA|A3-A2F|G>AFE2D|D3-D2e|
e>fee>fe|e3-e2c|d>ecB2A|A3-A2:|
|:e|e>fee>fe|f3g3|f>edc2B|B3-B2A|
A>BAA>BA|A2FA2F|G>AFE2D|D3-D2:|
